Adwaita++/actions/16/tools-check-spelling.svg

<svg xmlns="http://www.w3.org/2000/svg" width="16" height="16">
    <g color="#000" font-weight="400" font-family="sans-serif" white-space="normal" fill="#474747">
        <path d="M3 3.012v2h1.92c-.055 0 .084.159.084.082v.924H4C2.284 6.018.97 7.143.945 8.502c-.012.68.306 1.363.862 1.822.555.46 1.315.7 2.193.7h3.004v-5.93c0-1.171-.887-2.082-2.084-2.082zm1 5.006h1.004v1.005H4c-.52 0-.794-.137-.92-.242-.126-.104-.136-.172-.135-.244.003-.144.085-.52 1.055-.52zM7.996 2v9.023H11c.939 0 1.769-.372 2.299-.959.53-.586.766-1.336.756-2.066a3.079 3.079 0 0 0-.791-2.043C12.737 5.378 11.92 5 11 5H9.996V2zm2 5H11c.422 0 .626.126.787.303.162.177.264.447.268.722.004.276-.089.53-.24.698-.152.167-.356.3-.815.3H9.996zM3 11.293L.646 13.646a.5.5 0 1 0 .708.708L3 12.707l2 2 2-2 2 2 2-2 2 2 2.354-2.353a.5.5 0 1 0-.708-.708L13 13.293l-2-2-2 2-2-2-2 2z" style="line-height:normal;font-variant-ligatures:normal;font-variant-position:normal;font-variant-caps:normal;font-variant-numeric:normal;font-variant-alternates:normal;font-feature-settings:normal;text-indent:0;text-align:start;text-decoration-line:none;text-decoration-style:solid;text-decoration-color:#000;text-transform:none;text-orientation:mixed;shape-padding:0;isolation:auto;mix-blend-mode:normal;marker:none" overflow="visible"/>
    </g>
</svg>

<svg xmlns="http://www.w3.org/2000/svg" width="16" height="16" version="1.1">
 <path style="fill:#444444" d="M 3,11.293 0.64648,13.646 A 0.50029,0.50029 0 1 0 1.3535,14.354 L 3,12.707 5,14.707 7,12.707 9,14.707 11,12.707 13,14.707 15.354,12.354 A 0.50063,0.50063 0 1 0 14.646,11.646 L 13,13.293 11,11.293 9,13.293 7,11.293 5,13.293 Z"/>
 <path style="fill:#444444" d="M 8,2 V 11 H 11 C 12.662,11 14,9.662 14,8 14,6.338 12.662,5 11,5 H 10 V 2 Z M 10,7 H 11 C 11.554,7 12,7.446 12,8 12,8.554 11.554,9 11,9 H 10 Z"/>
 <path style="fill:#444444" d="M 2,3 V 5 H 5 V 6 H 4 C 2.338,6 1,7.115 1,8.5 1,9.885 2.338,11 4,11 H 7 V 5 C 7,3.892 6.108,3 5,3 Z M 3.5,8 H 5 V 9 H 3.5 C 3.223,9 3,8.777 3,8.5 3,8.223 3.223,8 3.5,8 Z"/>
</svg>
